X:171
T:Haunting Flag of Liberty (?). Le4.171, The
Q:1/4=100
L:1/8
B:L.Leadley MS#4 c1850
Z:vmp.Mike Hicken 2016 www.village-music-project.org.uk
N:The title is not clear. There is a note on the photocopy but this is nor entirely clear either.
M:C
K:C
Gc|e2B2 c2 dc|B3A G2G2|G3c e2c2|d4-d2G2|e2B2c2 dc|B3c d2e2|d3d d2F2|G4 z2 ||
G|G3G FGAB|cBcd e3G|f3e d>cB>A|G4 G2G2|c3G e3c|BA^GA f3A|Gd3 e3d|c4 |]

